!!!!SEGMENT: pl-sa--481-a-viii-121--016_anonim-valc.krn
!!!id: 18xx:387
!!!COM: Anonim
!!!OTL: Valc
!!!PDT:
!!!SMS-siglum: PL-SA
!!!SMS-shelfmark: 481/A VIII 121
!!!NIFC-rismID: 1001070494
!!!URL-scan: http://bc.bdsandomierz.pl/dlibra/publication/1212/edition/1171/content
!!!ONB-nifc: Str. 10, s. 1-3
!!!SMS-variant:
!!!SMS-altvar:
**kern	**kern
*part1	*part1
*staff2	*staff1
*I"Piano	*
*I'P-no	*
*clefF4	*clefG2
*k[f#]	*k[f#]
*M3/8	*M3/8
*>[A,A,B,B,C,C,D,D,E,E]	*>[A,A,B,B,C,C,D,D,E,E]
=1	=1
*>A	*>A
!LO:N:vis=8.	!LO:TX:a:t=Valc
4.d 4.B 4.G\	8dd\L
.	8b\
.	8cc\J
=2	=2
*rep	*
!LO:N:vis=8.	!
4.d 4.B 4.G\	8dd\L
.	8b\
.	8cc\J
*Xrep	*
=3	=3
*rep	*
!LO:N:vis=8.	!
4.d 4.B 4.G\	8dd\L
.	8gg\
.	8ee\J
*Xrep	*
=4	=4
*rep	*
!LO:N:vis=8.	!
4.d 4.B 4.G\	4dd\
.	16b\LL
.	16cc\JJ
*Xrep	*
=5	=5
*rep	*
!LO:N:vis=8.	!
4.d 4.B 4.G\	8dd\L
.	8b\
.	8cc\J
*Xrep	*
=6	=6
!LO:N:vis=8.	!
4.d 4.A 4.F#\	8cc/L
.	8a/
.	8f#/J
=7	=7
!LO:N:vis=8.	!
4.d 4.B 4.G\	4g/
.	8g/
=8:|!|:	=8:|!|:
*>B	*>B
!LO:N:vis=8.	!
4.d 4.A 4.F#\	8ccc\L
.	8aa\
.	8ccc\J
=9	=9
!LO:N:vis=8.	!
4.d 4.B 4.G\	8bb\L
.	8gg\
.	8bb\J
=10	=10
!LO:N:vis=8.	!
4.d 4.A 4.F#\	8ff#L 8b\
.	16dd\L
.	16ee\JJ
.	8ff#\
=11	=11
!LO:N:vis=8.	!
4.d 4.B 4.G\	8gg\L
.	8bb\
.	8ddd\J
=12	=12
!LO:N:vis=8.	!
4.d 4.A 4.F#\	8ccc\L
.	8aa\
.	8ccc\J
=13	=13
!LO:N:vis=8.	!
4.d 4.B 4.G\	8bb\L
.	8gg\
.	8bb\J
=14	=14
!LO:N:vis=8.	!
4.d 4.A 4.F#\	8dd\L
.	8ee\
.	8ff#\J
=15	=15
!LO:N:vis=8.	!
4.d 4.B 4.G\	4gg\
.	8gg\
=16:|!|:	=16:|!|:
*>C	*>C
!LO:CL:ed	!
*clefG2	*
!LO:TX:a:t=P:problem:brak zmiany klucza	!
!LO:N:vis=8.	!
4.a 4.f# 4.d/	4aa\
.	16ff#\LL
.	16gg\JJ
=17	=17
4.a 4.f# 4.d/	4aa\
.	16ff#\LL
.	16gg\JJ
!LO:LB:g=original	!LO:LB:g=original
=18	=18
*rep	*
!LO:N:vis=8.	!
4.a 4.f# 4.d/	8aa\L
.	8ddd\
.	8bb\J
*Xrep	*
=19	=19
*rep	*
!LO:N:vis=8.	!
4.a 4.f# 4.d/	4aa\
.	8ff#\
*Xrep	*
=20	=20
!LO:N:vis=8.	!LO:N:vis=16
4.g 4.e 4.c#X/	8a\L
.	16gg\L
.	16a\
.	16gg\
.	16a\JJ
=21	=21
!LO:N:vis=8.	!LO:N:vis=16
4.a 4.f# 4.d/	8a\L
.	16ff#\L
.	16a\
.	16ff#\
.	16a\JJ
=22	=22
!LO:N:vis=8.	!
4.g 4.e 4.c#X/	8a\L
.	16ee\L
.	16a\
.	16ee\
.	16a\JJ
=23	=23
!LO:N:vis=8.	!
4.a 4.f# 4.d/	4dd\
.	8dd\
=24:|!|:	=24:|!|:
*>D	*>D
!LO:N:vis=8.	!
4.a 4.f# 4.d/	16ddd\LL
.	16ccc#X\
.	16bb\
.	16aa\
.	16gg\
.	16ff#\JJ
=25	=25
*rep	*
!LO:N:vis=8.	!
4.a 4.f# 4.d/	8aa\L
.	8ff#\
.	8ff#\J
=26	=26
!LO:N:vis=8.	!
4.g 4.e 4.c/	8gg\L
.	8ee\
.	8ee\J
=27	=27
!LO:N:vis=8.	!
4.a 4.f# 4.d/	8dd\L
.	8ff#\
.	8aa\J
=28	=28
*rep	*
!LO:N:vis=8.	!
4.a 4.f# 4.d/	16dddn\LL
.	16ccc#X\
.	16bb\
.	16aa\
.	16gg\
.	16ff#\JJ
*Xrep	*
=29	=29
*rep	*
!LO:N:vis=8.	!
4.a 4.f# 4.d/	8aa\L
.	8ff#\
.	8ff#\J
*Xrep	*
=30	=30
!LO:N:vis=8.	!
4.g 4.e 4.c#X/	8gg\L
.	8ee\
!	!LO:SIC:v:s=cc#
.	8cc\J
=31	=31
!LO:N:vis=8.	!
4.a 4.f# 4.d/	4dd\
.	8dd\
!LO:LB:g=original	!LO:LB:g=original
=32:|!|:	=32:|!|:
*>E	*>E
!LO:N:vis=8.	!
4.g 4.e 4.c#X/	8a\L
!	!LO:N:vis=16
.	8gg\
.	16ff#\L
.	16gg\JJ
=33	=33
!LO:N:vis=8.	!
4.a 4.f# 4.d/	8ff#\L
.	8aa\
.	8ddd\J
=34	=34
!LO:N:vis=8.	!LO:SIC:v:s=ccc#
4.g 4.e 4.c#X/	8ccc\L
.	16bb\L
.	16aa\
.	16bb\
!	!LO:SIC:v:s=ccc#
.	16ccc\JJ
=35	=35
!LO:N:vis=8.	!
4.a 4.f# 4.d/	8ddd\L
.	8aa\
.	8ff#\J
=36	=36
!LO:N:vis=8.	!
4.g 4.e 4.c#X/	8a\L
!	!LO:N:vis=16
.	8gg\
.	16ff#\L
.	16gg\JJ
=37	=37
!LO:N:vis=8.	!
4.a 4.f# 4.d/	8ff#\L
.	8aa\
.	8ddd\J
=38	=38
!LO:N:vis=8.	!
4.g 4.e 4.c#X/	8gg\L
.	8ee\
!	!LO:SIC:v:s=cc#
.	8cc\J
=39	=39
!LO:N:vis=8.	!
4.a 4.f# 4.d/	4dd\
.	8dd\
=:|!;;	=:|!;;
*-	*-
!!!system-decoration: s1,s2
!!!ENC: Marcin Jachim
!!!END: 2020-06-14
!!!ENC: Marta Lawrence
!!!END: 2020-11-20
